packages/Snapp/src/UserIcon/index.svg

<?xml version="1.0" encoding="UTF-8"?>
<svg width="24px" height="24px" viewBox="0 0 24 24" version="1.1" xmlns="http://www.w3.org/2000/svg" xmlns:xlink="http://www.w3.org/1999/xlink">
    <title>Icons/24/User</title>
    <g id="Icons/24/User" stroke="none" stroke-width="1" fill="none" fill-rule="evenodd">
        <rect id="Container" fill-opacity="0" fill="#D8D8D8" fill-rule="nonzero" x="0" y="0" width="24" height="24"></rect>
        <path d="M15,14 C17.7614237,14 20,16.2385763 20,19 L20,21 C20,21.5522847 19.5522847,22 19,22 C18.4477153,22 18,21.5522847 18,21 L18,19 C18,17.3431458 16.6568542,16 15,16 L9,16 C7.34314575,16 6,17.3431458 6,19 L6,21 C6,21.5522847 5.55228475,22 5,22 C4.44771525,22 4,21.5522847 4,21 L4,19 C4,16.2385763 6.23857625,14 9,14 L15,14 Z M12,2 C14.7614237,2 17,4.23857625 17,7 C17,9.76142375 14.7614237,12 12,12 C9.23857625,12 7,9.76142375 7,7 C7,4.23857625 9.23857625,2 12,2 Z M12,4 C10.3431458,4 9,5.34314575 9,7 C9,8.65685425 10.3431458,10 12,10 C13.6568542,10 15,8.65685425 15,7 C15,5.34314575 13.6568542,4 12,4 Z" id="Shape" fill="#404040"></path>
    </g>
</svg>

<svg viewBox="0 0 24 24" xmlns="http://www.w3.org/2000/svg" fill="currentColor" focusable="false">
  <path d="M15 14a5 5 0 015 5v2a1 1 0 01-2 0v-2a3 3 0 00-3-3H9a3 3 0 00-3 3v2a1 1 0 01-2 0v-2a5 5 0 015-5h6zM12 2a5 5 0 110 10 5 5 0 010-10zm0 2a3 3 0 100 6 3 3 0 000-6z" fill="none"/>
</svg>
